dist/img/clock.svg

<svg width="18" height="18" viewBox="0 0 18 18" fill="none" xmlns="http://www.w3.org/2000/svg">
<path d="M16.5 11.5C16.5023 12.6643 16.107 13.7945 15.3797 14.7037C14.6523 15.6129 13.6364 16.2466 12.5 16.5C11.3636 16.2466 10.3477 15.6129 9.62034 14.7037C8.89299 13.7945 8.49776 12.6643 8.50001 11.5V9.13934C8.50004 8.94293 8.5579 8.75088 8.66638 8.58716C8.77486 8.42343 8.92916 8.29527 9.11001 8.21867C10.1774 7.74494 11.3322 7.50018 12.5 7.50018C13.6678 7.50018 14.8226 7.74494 15.89 8.21867C16.0709 8.29527 16.2252 8.42343 16.3336 8.58716C16.4421 8.75088 16.5 8.94293 16.5 9.13934V11.5Z" stroke="#226FCA" stroke-width="1.2" stroke-linecap="round" stroke-linejoin="round"/>
<path d="M12.5 9.5V13.5" stroke="#226FCA" stroke-width="1.2" stroke-linecap="round" stroke-linejoin="round"/>
<path d="M10.5 11.5H14.5" stroke="#226FCA" stroke-width="1.2" stroke-linecap="round" stroke-linejoin="round"/>
<path d="M6.49999 10.5C5.97001 10.4999 5.44952 10.3593 4.99149 10.0927C4.53346 9.8261 4.15424 9.4429 3.89241 8.98211C3.63058 8.52133 3.49549 7.9994 3.50089 7.46945C3.50628 6.9395 3.65197 6.42044 3.92313 5.96508C4.19429 5.50972 4.58124 5.13432 5.04461 4.87708C5.50797 4.61984 6.03121 4.48995 6.56108 4.50061C7.09095 4.51127 7.60854 4.66211 8.06118 4.93778C8.51383 5.21345 8.88536 5.6041 9.13799 6.07" stroke="#226FCA" stroke-width="1.2" stroke-linecap="round" stroke-linejoin="round"/>
<path d="M7.5 7.5H6.5V6.5" stroke="#226FCA" stroke-width="1.2" stroke-linecap="round" stroke-linejoin="round"/>
<path d="M6 14.5H2.5C2.23478 14.5 1.98043 14.3946 1.79289 14.2071C1.60536 14.0196 1.5 13.7652 1.5 13.5V2.5C1.5 2.23478 1.60536 1.98043 1.79289 1.79289C1.98043 1.60536 2.23478 1.5 2.5 1.5H9.586C9.85113 1.50023 10.1053 1.60574 10.2927 1.79333L12.2073 3.70733C12.3002 3.80024 12.3738 3.91052 12.424 4.03189C12.4742 4.15325 12.5001 4.28332 12.5 4.41467V5.5" stroke="#226FCA" stroke-width="1.2" stroke-linecap="round" stroke-linejoin="round"/>
</svg>

<svg width="18" height="18" fill="none" xmlns="http://www.w3.org/2000/svg"><path d="M16.5 11.5a5.113 5.113 0 01-4 5 5.113 5.113 0 01-4-5V9.14a1 1 0 01.61-.921 8.357 8.357 0 016.78 0 1 1 0 01.61.92V11.5zm-4-2v4m-2-2h4m-8-1a3 3 0 112.638-4.43" stroke="#226FCA" stroke-width="1.2" stroke-linecap="round" stroke-linejoin="round"/><path d="M7.5 7.5h-1v-1" stroke="#226FCA" stroke-width="1.2" stroke-linecap="round" stroke-linejoin="round"/><path d="M6 14.5H2.5a1 1 0 01-1-1v-11a1 1 0 011-1h7.086a1 1 0 01.707.293l1.914 1.914a.999.999 0 01.293.708V5.5" stroke="#226FCA" stroke-width="1.2" stroke-linecap="round" stroke-linejoin="round"/></svg>
